; generated by PrusaSlicer 2.2.0-alpha2+linux-x64 on 2020-09-25 at 08:19:00 UTC

; 

; external perimeters extrusion width = 0.45mm
; perimeters extrusion width = 0.45mm
; infill extrusion width = 0.45mm
; solid infill extrusion width = 0.45mm
; top infill extrusion width = 0.40mm
; first layer extrusion width = 0.42mm

M201 X9000 Y9000 Z500 E10000 ; sets maximum accelerations, mm/sec^2
M203 X500 Y500 Z12 E120 ; sets maximum feedrates, mm/sec
M204 P1500 R1500 T1500 ; sets acceleration (P, T) and retract acceleration (R), mm/sec^2
M205 X10.00 Y10.00 Z0.20 E2.50 ; sets the jerk limits, mm/sec
M205 S0 T0 ; sets the minimum extruding and travel feed rate, mm/sec
M107
M190 S60 ; set bed temperature and wait for it to be reached
M104 S230 ; set temperature
G28 ; home all axes
G1 Z5 F5000 ; lift nozzle
M109 S230 ; set temperature and wait for it to be reached
G21 ; set units to millimeters
G90 ; use absolute coordinates
M82 ; use absolute distances for extrusion
G92 E0
; Filament gcode
G1 E-1.80000 F1800.00000
G92 E0
G1 Z0.600 F12000.000
G1 X86.126 Y95.649
G1 Z0.300
G1 E1.80000 F1800.00000
G1 X96.150 Y85.619 E2.42898
G1 X108.878 Y79.119 E3.06291
G1 X122.942 Y76.892 E3.69446
G1 X136.999 Y79.119 E4.32576
G1 X149.065 Y85.179 E4.92464
G1 X149.555 Y85.511 E4.95088
G1 X150.757 Y86.645 E5.02419
G1 X159.719 Y95.607 E5.58635
G1 X166.219 Y108.336 E6.22028
G1 X168.446 Y122.398 E6.85177
G1 X166.197 Y136.511 E7.48566
G1 X159.755 Y149.146 E8.11471
G1 X149.731 Y159.176 E8.74369
G1 X137.002 Y165.676 E9.37762
G1 X122.940 Y167.903 E10.00911
G1 X108.827 Y165.654 E10.64300
G1 X96.192 Y159.212 E11.27205
G1 X86.162 Y149.188 E11.90103
G1 X79.662 Y136.459 E12.53496
G1 X77.435 Y122.397 E13.16645
G1 X79.683 Y108.284 E13.80034
G1 X86.098 Y95.703 E14.42673
G1 E12.62673
G92 E0
G1 Z0.900 F12000.000
G1 X150.983 Y85.335
G1 Z0.300
G1 E1.80000 F1800.00000
G1 X151.416 Y85.544 E1.82132
G1 X160.678 Y94.806 E2.40227
G1 X167.391 Y107.925 E3.05593
G1 X169.688 Y122.538 E3.71207
G1 X167.409 Y136.817 E4.35341
G1 X160.843 Y149.762 E4.99721
G1 X150.533 Y160.134 E5.64589
G1 X137.413 Y166.849 E6.29960
G1 X122.799 Y169.146 E6.95574
G1 X108.521 Y166.866 E7.59709
G1 X95.576 Y160.300 E8.24089
G1 X85.204 Y149.990 E8.88956
G1 X78.489 Y136.870 E9.54327
G1 X76.192 Y122.257 E10.19941
G1 X78.472 Y107.978 E10.84076
G1 X85.038 Y95.033 E11.48456
G1 X95.348 Y84.661 E12.13323
G1 X108.468 Y77.946 E12.78695
G1 X123.080 Y75.650 E13.44305
G1 X137.253 Y77.894 E14.07950
G1 X149.204 Y83.942 E14.67360
G1 X149.723 Y84.114 E14.69784
G1 X150.462 Y84.657 E14.73853
G1 X150.947 Y85.288 E14.77380
G1 X150.755 Y85.623 F12000.000
G1 F1800.000
G1 X151.189 Y85.820 E14.79495
G1 X160.407 Y95.038 E15.37314
G1 X167.062 Y108.062 E16.02187
G1 X169.333 Y122.510 E16.67059
G1 X167.062 Y136.734 E17.30946
G1 X160.538 Y149.576 E17.94836
G1 X150.301 Y159.863 E18.59211
G1 X137.276 Y166.519 E19.24087
G1 X122.828 Y168.790 E19.88959
G1 X108.604 Y166.519 E20.52846
G1 X95.762 Y159.996 E21.16736
G1 X85.474 Y149.758 E21.81110
G1 X78.819 Y136.734 E22.45986
G1 X76.548 Y122.285 E23.10858
G1 X78.819 Y108.062 E23.74746
G1 X85.342 Y95.219 E24.38635
G1 X95.580 Y84.932 E25.03010
G1 X108.604 Y78.276 E25.67886
G1 X123.052 Y76.005 E26.32756
G1 X137.170 Y78.241 E26.96154
G1 X149.071 Y84.273 E27.55335
G1 X149.537 Y84.419 E27.57502
G1 X150.230 Y84.928 E27.61315
G1 X150.719 Y85.575 E27.64912
G1 X150.513 Y85.994 F12000.000
G1 F1800.000
G1 X150.741 Y86.001 E27.65924
G1 X150.963 Y86.097 E27.66993
G1 X160.135 Y95.269 E28.24530
G1 X166.732 Y108.198 E28.88910
G1 X168.977 Y122.482 E29.53042
G1 X166.732 Y136.597 E30.16438
G1 X160.234 Y149.390 E30.80080
G1 X150.069 Y159.592 E31.43961
G1 X137.193 Y166.172 E32.08096
G1 X122.856 Y168.434 E32.72474
G1 X108.741 Y166.190 E33.35870
G1 X95.948 Y159.691 E33.99512
G1 X85.745 Y149.526 E34.63394
G1 X79.166 Y136.650 E35.27528
G1 X76.903 Y122.313 E35.91907
G1 X79.148 Y108.198 E36.55302
G1 X85.646 Y95.405 E37.18944
G1 X95.812 Y85.203 E37.82826
G1 X108.688 Y78.623 E38.46961
G1 X123.024 Y76.361 E39.11338
G1 X137.086 Y78.588 E39.74488
G1 X148.818 Y84.536 E40.32830
G1 X148.885 Y84.590 E40.33210
G1 X149.353 Y84.726 E40.35374
G1 X149.998 Y85.199 E40.38922
G1 X150.396 Y85.729 E40.41862
G1 X150.489 Y85.939 E40.42880
G1 E38.62880
G92 E0
G1 Z0.900 F12000.000
G1 X108.799 Y165.830
G1 Z0.300
G1 E1.80000 F1800.00000
G1 X122.898 Y168.077 E2.43326
G1 E0.63326
G92 E0
G1 Z0.900 F12000.000
G1 X96.124 Y159.377
G1 Z0.300
G1 E1.80000 F1800.00000
G1 X100.368 Y161.541 E2.01127
G1 E0.21127
G92 E0
G1 Z0.900 F12000.000
G1 X149.854 Y159.305
G1 Z0.300
G1 E1.80000 F1800.00000
G1 X149.817 Y159.331 E1.80199
G1 E0.00199
G92 E0
G1 Z0.900 F12000.000
G1 X86.007 Y149.275
G1 Z0.300
G1 E1.80000 F1800.00000
G1 X86.033 Y149.311 E1.80199
G1 E0.00199
G92 E0
G1 Z0.900 F12000.000
G1 X162.084 Y144.969
G1 Z0.300
G1 E1.80000 F1800.00000
G1 X159.920 Y149.214 E2.01131
G1 E0.21131
G92 E0
G1 Z0.900 F12000.000
G1 X168.619 Y122.440
G1 Z0.300
G1 E1.80000 F1800.00000
G1 X166.373 Y136.539 E2.43326
G1 E0.63326
G92 E0
G1 Z0.900 F12000.000
G1 X79.508 Y108.256
G1 Z0.300
G1 E1.80000 F1800.00000
G1 X77.261 Y122.356 E2.43326
G1 E0.63326
G92 E0
G1 Z0.900 F12000.000
G1 X85.961 Y95.582
G1 Z0.300
G1 E1.80000 F1800.00000
G1 X83.797 Y99.825 E2.01129
G1 E0.21129
G92 E0
G1 Z0.900 F12000.000
G1 X159.874 Y95.521
G1 Z0.300
G1 E1.80000 F1800.00000
G1 X150.728 Y86.374 E2.37375
G1 E0.57375
G92 E0
G1 Z0.900 F12000.000
G1 X96.027 Y85.491
G1 Z0.300
G1 E1.80000 F1800.00000
G1 X96.063 Y85.464 E1.80199
G1 E0.00199
G92 E0
G1 Z0.900 F12000.000
G1 X149.247 Y85.087
G1 Z0.300
G1 E1.80000 F1800.00000
G1 X149.168 Y85.033 E1.80428
G1 E0.00428
G92 E0
G1 Z0.900 F12000.000
G1 X122.996 Y76.716
G1 Z0.300
G1 E1.80000 F1800.00000
G1 X137.015 Y78.941 E2.42957
G1 E0.62957
G92 E0
G1 Z0.900 F12000.000
G1 X122.983 Y76.718
G1 Z0.300
G1 E1.80000 F1800.00000
G1 X122.996 Y76.716 E1.80059
G1 E0.00059
G92 E0
G1 Z0.900 F12000.000
G1 X122.926 Y167.721
G1 Z0.300
G1 E1.80000 F1800.00000
G1 X136.959 Y165.498 E2.43017
G1 E0.63017
G92 E0
G1 Z0.900 F12000.000
G1 X86.307 Y149.082
G1 Z0.300
G1 E1.80000 F1800.00000
G1 X96.311 Y159.073 E2.42709
G1 E0.62709
G92 E0
G1 Z0.900 F12000.000
G1 X159.616 Y149.027
G1 Z0.300
G1 E1.80000 F1800.00000
G1 X149.625 Y159.031 E2.42709
G1 E0.62709
G92 E0
G1 Z0.900 F12000.000
G1 X77.617 Y122.384
G1 Z0.300
G1 E1.80000 F1800.00000
G1 X79.840 Y136.416 E2.43017
G1 E0.63017
G92 E0
G1 Z0.900 F12000.000
G1 X166.041 Y108.379
G1 Z0.300
G1 E1.80000 F1800.00000
G1 X168.264 Y122.412 E2.43017
G1 E0.63017
G92 E0
G1 Z0.900 F12000.000
G1 X86.265 Y95.768
G1 Z0.300
G1 E1.80000 F1800.00000
G1 X96.256 Y85.765 E2.42709
G1 E0.62709
G92 E0
G1 Z0.900 F12000.000
G1 X150.573 Y86.716
G1 Z0.300
G1 E1.80000 F1800.00000
G1 X150.413 Y86.729 E1.80713
G1 X150.166 Y87.068 E1.82574
G1 X149.797 Y86.115 E1.87108
G1 X149.464 Y85.672 E1.89566
G1 X149.119 Y85.430 E1.91436
G1 E0.11436
G92 E0
G1 Z0.900 F12000.000
G1 X136.931 Y79.288
G1 Z0.300
G1 E1.80000 F1800.00000
G1 X148.336 Y85.088 E2.36752
G1 X148.362 Y85.197 E2.37246
G1 X148.995 Y85.346 E2.40130
G1 E0.60130
G92 E0
G1 Z0.900 F12000.000
G1 X108.922 Y79.297
G1 Z0.300
G1 E1.80000 F1800.00000
G1 X122.955 Y77.074 E2.43021
G1 E0.63021
G92 E0
G1 Z0.900 F12000.000
G1 X156.719 Y135.105
G1 Z0.300
G1 E1.80000 F1800.00000
G1 X152.317 Y143.742 E2.22994
G1 X145.464 Y150.595 E2.65985
G1 X144.524 Y149.301 E2.73079
G1 X150.458 Y143.367 E3.10301
G1 X144.775 Y139.237 E3.41461
G1 X139.214 Y144.798 E3.76339
G1 X131.497 Y148.729 E4.14758
G1 X122.940 Y150.085 E4.53182
G1 X115.174 Y148.855 E4.88059
G1 X113.004 Y155.537 E5.19219
G1 X121.292 Y156.849 E5.56441
G1 X121.292 Y158.449 E5.63537
G1 X111.719 Y156.932 E6.06528
G1 X101.596 Y151.775 E6.56920
G1 X93.563 Y143.742 E7.07308
G1 X88.405 Y133.619 E7.57700
G1 X86.628 Y122.398 E8.08092
G1 X88.144 Y112.824 E8.51084
G1 X89.666 Y113.318 E8.58179
G1 X88.228 Y122.398 E8.98954
G1 X89.927 Y133.124 E9.47125
G1 X94.857 Y142.802 E9.95298
G1 X102.536 Y150.481 E10.43467
G1 X111.501 Y155.048 E10.88094
G1 X113.671 Y148.367 E11.19253
G1 X108.153 Y145.554 E11.46727
G1 X109.093 Y144.260 E11.53822
G1 X114.166 Y146.845 E11.79077
G1 X116.337 Y140.164 E12.10238
G1 X113.222 Y138.576 E12.25749
G1 X114.162 Y137.282 E12.32843
G1 X117.544 Y139.006 E12.49679
G1 X121.292 Y139.599 E12.66513
G1 X121.292 Y141.199 E12.73609
G1 X117.840 Y140.652 E12.89112
G1 X115.669 Y147.334 E13.20273
G1 X122.940 Y148.485 E13.52929
G1 X130.212 Y147.334 E13.85585
G1 X128.041 Y140.652 E14.16746
G1 X124.588 Y141.199 E14.32249
G1 X124.588 Y139.599 E14.39345
G1 X127.547 Y139.131 E14.52632
G1 X125.376 Y132.449 E14.83793
G1 X122.940 Y132.835 E14.94729
G1 X119.715 Y132.324 E15.09213
G1 X116.805 Y130.842 E15.23698
G1 X114.496 Y128.533 E15.38182
G1 X113.013 Y125.623 E15.52667
G1 X112.503 Y122.398 E15.67151
G1 X113.013 Y119.172 E15.81635
G1 X114.133 Y116.975 E15.92572
G1 X108.450 Y112.846 E16.23729
G1 X107.090 Y115.515 E16.37017
G1 X105.568 Y115.021 E16.44114
G1 X107.518 Y111.193 E16.63171
G1 X110.556 Y108.155 E16.82225
G1 X111.497 Y109.450 E16.89325
G1 X109.378 Y111.568 E17.02614
G1 X115.062 Y115.697 E17.33776
G1 X116.805 Y113.954 E17.44711
G1 X119.002 Y112.834 E17.55648
G1 X116.831 Y106.153 E17.86809
G1 X114.162 Y107.513 E18.00097
G1 X113.222 Y106.219 E18.07192
G1 X116.337 Y104.631 E18.22702
G1 X114.166 Y97.950 E18.53864
G1 X109.093 Y100.535 E18.79119
G1 X108.153 Y99.241 E18.86213
G1 X113.671 Y96.428 E19.13687
G1 X111.501 Y89.747 E19.44847
G1 X104.023 Y93.557 E19.82074
G1 X103.083 Y92.263 E19.89168
G1 X111.719 Y87.863 E20.32160
G1 X122.940 Y86.085 E20.82552
G1 X134.162 Y87.863 E21.32945
G1 X142.798 Y92.263 E21.75937
G1 X141.858 Y93.557 E21.83031
G1 X134.379 Y89.747 E22.20258
G1 X132.209 Y96.428 E22.51417
G1 X137.728 Y99.241 E22.78892
G1 X136.788 Y100.535 E22.85986
G1 X131.002 Y97.586 E23.14789
G1 X124.588 Y96.571 E23.43591
G1 X124.588 Y94.971 E23.50687
G1 X130.707 Y95.940 E23.78163
G1 X132.877 Y89.259 E24.09322
G1 X122.940 Y87.685 E24.53946
G1 X113.004 Y89.259 E24.98569
G1 X115.174 Y95.940 E25.29728
G1 X121.292 Y94.971 E25.57204
G1 X121.292 Y96.571 E25.64300
G1 X115.669 Y97.462 E25.89554
G1 X117.840 Y104.143 E26.20716
G1 X121.292 Y103.596 E26.36219
G1 X121.292 Y105.196 E26.43315
G1 X118.334 Y105.665 E26.56601
G1 X120.505 Y112.346 E26.87763
G1 X122.940 Y111.960 E26.98699
G1 X125.376 Y112.346 E27.09635
G1 X127.547 Y105.664 E27.40798
G1 X124.588 Y105.196 E27.54085
G1 X124.588 Y103.596 E27.61181
G1 X128.831 Y104.268 E27.80231
G1 X132.659 Y106.219 E27.99290
G1 X131.719 Y107.513 E28.06384
G1 X129.050 Y106.153 E28.19673
G1 X126.878 Y112.834 E28.50835
G1 X128.661 Y113.743 E28.59712
G1 X128.130 Y114.539 E28.63958
G1 X127.926 Y115.141 E28.66777
G1 X125.671 Y113.992 E28.78002
G1 X122.940 Y113.560 E28.90265
G1 X120.210 Y113.992 E29.02528
G1 X117.745 Y115.248 E29.14794
G1 X115.790 Y117.203 E29.27058
G1 X114.535 Y119.667 E29.39324
G1 X114.103 Y122.398 E29.51587
G1 X114.535 Y125.128 E29.63850
G1 X115.790 Y127.593 E29.76117
G1 X117.745 Y129.548 E29.88380
G1 X120.210 Y130.803 E30.00647
G1 X122.940 Y131.235 E30.12909
G1 X125.671 Y130.803 E30.25172
G1 X128.135 Y129.548 E30.37439
G1 X130.090 Y127.593 E30.49702
G1 X130.573 Y126.645 E30.54417
G1 X132.091 Y127.145 E30.61507
G1 X131.384 Y128.533 E30.68412
G1 X129.075 Y130.842 E30.82896
G1 X126.878 Y131.961 E30.93833
G1 X129.050 Y138.642 E31.24994
G1 X131.719 Y137.282 E31.38282
G1 X132.659 Y138.576 E31.45376
G1 X129.543 Y140.164 E31.60887
G1 X131.715 Y146.845 E31.92048
G1 X138.274 Y143.503 E32.24704
G1 X144.045 Y137.732 E32.60904
G1 X146.994 Y131.946 E32.89708
G1 X148.515 Y132.439 E32.96803
G1 X145.703 Y137.959 E33.24280
G1 X151.387 Y142.089 E33.55444
G1 X155.197 Y134.611 E33.92671
G1 X156.661 Y135.087 E33.99501
G1 X156.516 Y135.450 F12000.000
G1 X156.213 Y135.315
G1 F1800.000
G1 X152.026 Y143.530 E34.40399
G1 X145.507 Y150.049 E34.81293
G1 X144.990 Y149.338 E34.85193
G1 X151.003 Y143.324 E35.22915
G1 X144.738 Y138.771 E35.57269
G1 X139.003 Y144.506 E35.93244
G1 X131.385 Y148.387 E36.31163
G1 X122.940 Y149.725 E36.69088
G1 X114.930 Y148.456 E37.05062
G1 X112.537 Y155.823 E37.39416
G1 X120.937 Y157.153 E37.77138
G1 X120.937 Y158.032 E37.81039
G1 X111.830 Y156.590 E38.21934
G1 X101.808 Y151.483 E38.71826
G1 X93.855 Y143.530 E39.21715
G1 X88.748 Y133.508 E39.71607
G1 X86.988 Y122.398 E40.21500
G1 X88.430 Y113.291 E40.62396
G1 X89.267 Y113.562 E40.66297
G1 X87.868 Y122.398 E41.05974
G1 X89.585 Y133.236 E41.54645
G1 X94.566 Y143.013 E42.03317
G1 X102.325 Y150.772 E42.51985
G1 X111.711 Y155.554 E42.98709
G1 X114.103 Y148.188 E43.33063
G1 X108.685 Y145.426 E43.60037
G1 X109.202 Y144.715 E43.63938
G1 X114.375 Y147.351 E43.89693
G1 X116.769 Y139.985 E44.24048
G1 X113.754 Y138.448 E44.39059
G1 X114.271 Y137.737 E44.42959
G1 X117.432 Y139.348 E44.58698
G1 X120.937 Y139.903 E44.74435
G1 X120.937 Y140.782 E44.78336
G1 X117.596 Y140.253 E44.93340
G1 X115.202 Y147.620 E45.27695
G1 X122.940 Y148.845 E45.62447
G1 X130.679 Y147.620 E45.97199
G1 X128.285 Y140.253 E46.31555
G1 X124.944 Y140.782 E46.46558
G1 X124.944 Y139.903 E46.50460
G1 X128.014 Y139.417 E46.64247
G1 X125.620 Y132.050 E46.98602
G1 X122.940 Y132.475 E47.10636
G1 X119.826 Y131.982 E47.24620
G1 X117.017 Y130.550 E47.38605
G1 X114.788 Y128.321 E47.52589
G1 X113.356 Y125.512 E47.66575
G1 X112.863 Y122.398 E47.80559
G1 X113.356 Y119.284 E47.94544
G1 X114.588 Y116.866 E48.06578
G1 X108.322 Y112.314 E48.40929
G1 X106.911 Y115.083 E48.54717
G1 X106.074 Y114.811 E48.58620
G1 X107.810 Y111.404 E48.75580
G1 X110.513 Y108.701 E48.92538
G1 X111.031 Y109.413 E48.96444
G1 X108.832 Y111.611 E49.10233
G1 X115.099 Y116.163 E49.44588
G1 X117.017 Y114.245 E49.56621
G1 X119.435 Y113.013 E49.68656
G1 X117.040 Y105.647 E50.03011
G1 X114.271 Y107.058 E50.16798
G1 X113.754 Y106.347 E50.20699
G1 X116.769 Y104.810 E50.35710
G1 X114.375 Y97.444 E50.70065
G1 X109.202 Y100.080 E50.95820
G1 X108.685 Y99.369 E50.99720
G1 X114.103 Y96.607 E51.26695
G1 X111.711 Y89.241 E51.61048
G1 X104.132 Y93.102 E51.98775
G1 X103.615 Y92.391 E52.02675
G1 X111.830 Y88.205 E52.43570
G1 X122.940 Y86.445 E52.93463
G1 X134.050 Y88.205 E53.43356
G1 X142.265 Y92.391 E53.84251
G1 X141.749 Y93.102 E53.88151
G1 X134.170 Y89.241 E54.25878
G1 X131.777 Y96.607 E54.60231
G1 X137.195 Y99.369 E54.87206
G1 X136.679 Y100.080 E54.91106
G1 X131.113 Y97.244 E55.18813
G1 X124.944 Y96.267 E55.46517
G1 X124.944 Y95.388 E55.50419
G1 X130.951 Y96.339 E55.77395
G1 X133.344 Y88.973 E56.11749
G1 X122.940 Y87.325 E56.58468
G1 X112.537 Y88.973 E57.05188
G1 X114.930 Y96.339 E57.39542
G1 X120.937 Y95.388 E57.66518
G1 X120.937 Y96.267 E57.70420
G1 X115.202 Y97.176 E57.96174
G1 X117.596 Y104.542 E58.30529
G1 X120.937 Y104.013 E58.45533
G1 X120.937 Y104.892 E58.49435
G1 X117.867 Y105.379 E58.63221
G1 X120.261 Y112.745 E58.97577
G1 X122.940 Y112.320 E59.09610
G1 X125.620 Y112.745 E59.21644
G1 X128.014 Y105.378 E59.56001
G1 X124.944 Y104.892 E59.69788
G1 X124.944 Y104.013 E59.73689
G1 X128.719 Y104.610 E59.90644
G1 X132.126 Y106.347 E60.07606
G1 X131.610 Y107.058 E60.11506
G1 X128.840 Y105.647 E60.25294
G1 X126.446 Y113.013 E60.59650
G1 X128.144 Y113.878 E60.68101
G1 X127.809 Y114.380 E60.70780
G1 X127.721 Y114.638 E60.71984
G1 X125.782 Y113.650 E60.81636
G1 X122.940 Y113.200 E60.94399
G1 X120.098 Y113.650 E61.07161
G1 X117.534 Y114.956 E61.19927
G1 X115.499 Y116.991 E61.32691
G1 X114.193 Y119.556 E61.45457
G1 X113.743 Y122.398 E61.58219
G1 X114.193 Y125.240 E61.70982
G1 X115.499 Y127.804 E61.83748
G1 X117.534 Y129.839 E61.96511
G1 X120.098 Y131.145 E62.09277
G1 X122.940 Y131.595 E62.22040
G1 X125.782 Y131.145 E62.34802
G1 X128.347 Y129.839 E62.47568
G1 X130.382 Y127.804 E62.60332
G1 X130.751 Y127.079 E62.63943
G1 X131.586 Y127.354 E62.67841
G1 X131.093 Y128.321 E62.72657
G1 X128.864 Y130.550 E62.86641
G1 X126.446 Y131.782 E62.98676
G1 X128.840 Y139.148 E63.33031
G1 X131.610 Y137.737 E63.46819
G1 X132.126 Y138.448 E63.50719
G1 X129.111 Y139.985 E63.65730
G1 X131.505 Y147.351 E64.00085
G1 X138.486 Y143.794 E64.34837
G1 X144.337 Y137.943 E64.71537
G1 X147.173 Y132.378 E64.99244
G1 X148.009 Y132.649 E65.03145
G1 X145.248 Y138.068 E65.30122
G1 X151.515 Y142.621 E65.64480
G1 X155.376 Y135.043 E66.02206
